X:26
T:Fenterlarick
C:tune: Fred Grimshaw
C:dance: Joyce Walker
B:Barnes p.33
Z:1998 by John Chambers <jc@trillian.mit.edu>
M:2/4
L:1/8
F:http://trillian.mit.edu/~jc/music/abc/England/NancysFancy.abc	 2019-07-09 162027 UT
K:Fmaj clef=treble
P:A
c [||: "F"fc' -c'f | e>d cc | "F"ff "C7"ga/2b/2 | "F"a2 "C7"gc |
"F"fc' -c'f | e>d cb | "Bb"ag/2f/2 "C7"ce \
|1 "F"f3 c :|2 "F"f4 |]
P:B
[||: "Dm"fa-ad | "A7"f>e "Dm"dd | \
ff "Gm"ga/2b/2 | "F"a2 "C7"gc | \
"F"fa- ac' | "Gm"b>a ga |
"Bb"bd'- d'f' | "C7"e'>d' c'c' | \
"F"f'c'- c'b | a>b c'c' | \
"Bb"d'b- ba | "Gm"g2- "C7"gc |
"F"fc- cf | "C7"e>f gc | "Bb"df- "C7"fe | "F"f4 :|

